Desktop/project_createx/public/images/decor/shapes.svg

<svg width="417" height="484" viewBox="0 0 417 484" fill="none" xmlns="http://www.w3.org/2000/svg">
<g opacity="0.3">
<path d="M373.045 483.385C361.952 483.385 350.859 479.225 342.433 470.799L25.4381 153.804C8.58574 136.952 8.58574 109.54 25.4381 92.6877C33.651 84.4749 44.5303 79.9951 56.0497 79.9951C67.569 79.9951 78.4484 84.4749 86.6612 92.6877L403.656 409.683C411.869 417.896 416.349 428.668 416.349 440.294C416.349 451.814 411.869 462.693 403.656 470.906C395.123 479.225 384.137 483.385 373.045 483.385ZM56.0497 82.1283C45.0636 82.1283 34.7176 86.3948 27.038 94.181C11.0389 110.18 11.0389 136.312 27.038 152.311L344.033 469.306C360.032 485.305 386.164 485.305 402.163 469.306C409.949 461.52 414.216 451.174 414.216 440.294C414.216 429.308 409.949 418.962 402.163 411.283L85.0613 94.181C77.3818 86.3948 67.0357 82.1283 56.0497 82.1283Z" fill="#00F0B5"/>
<path d="M360.246 403.39C349.153 403.39 338.061 399.23 329.634 390.804L12.6393 73.8091C-4.21309 56.9567 -4.21309 29.545 12.6393 12.6926C20.8521 4.47974 31.7315 0 43.2508 0C54.7702 0 65.6496 4.47974 73.8624 12.6926L390.858 329.688C399.07 337.901 403.55 348.673 403.55 360.299C403.55 371.819 399.07 382.698 390.858 390.911C382.325 399.23 371.339 403.39 360.246 403.39ZM43.2508 2.13321C32.2648 2.13321 21.9187 6.39963 14.2392 14.1859C-1.7599 30.1849 -1.7599 56.3168 14.2392 72.3158L331.234 389.311C347.233 405.31 373.365 405.31 389.364 389.311C397.15 381.525 401.417 371.179 401.417 360.299C401.417 349.313 397.15 338.967 389.364 331.288L72.2625 14.1859C64.583 6.39963 54.2369 2.13321 43.2508 2.13321Z" fill="#00F0B5"/>
</g>
</svg>

<svg xmlns="http://www.w3.org/2000/svg" width="417" height="484" fill="none"><g fill="#00F0B5" opacity=".3"><path d="M373.045 483.385c-11.093 0-22.186-4.16-30.612-12.586L25.438 153.804c-16.852-16.852-16.852-44.264 0-61.116 8.213-8.213 19.092-12.693 30.612-12.693s22.398 4.48 30.611 12.693l316.995 316.995c8.213 8.213 12.693 18.985 12.693 30.611 0 11.52-4.48 22.399-12.693 30.612-8.533 8.319-19.519 12.479-30.611 12.479M56.05 82.128c-10.986 0-21.332 4.267-29.012 12.053-16 15.999-16 42.131 0 58.13l316.995 316.995c15.999 15.999 42.131 15.999 58.13 0 7.786-7.786 12.053-18.132 12.053-29.012 0-10.986-4.267-21.332-12.053-29.011L85.061 94.181c-7.68-7.786-18.025-12.053-29.011-12.053"/><path d="M360.246 403.39c-11.093 0-22.185-4.16-30.612-12.586L12.639 73.809c-16.852-16.852-16.852-44.264 0-61.116C20.852 4.48 31.732 0 43.251 0 54.77 0 65.65 4.48 73.862 12.693l316.996 316.995c8.212 8.213 12.692 18.985 12.692 30.611 0 11.52-4.48 22.399-12.692 30.612-8.533 8.319-19.519 12.479-30.612 12.479M43.251 2.133c-10.986 0-21.332 4.267-29.012 12.053-15.999 15.999-15.999 42.13 0 58.13L331.234 389.31c15.999 15.999 42.131 15.999 58.13 0 7.786-7.786 12.053-18.132 12.053-29.012 0-10.986-4.267-21.332-12.053-29.011L72.263 14.186C64.582 6.4 54.236 2.133 43.25 2.133"/></g></svg>
